X:1
M:3/4
K:C
A|:B2B|AGF|G2F|EFA|d2c|B2B|ABG|F2A|B3 c2c|
c2c c2A|B2c B2B|A2G GAG|B2G GBG|G3 A2||